X:1
T:Thady Casey's
M:4/4
L:1/8
S:L. Nugent: Windy Gap, Trk. 2, there in A flat (E flat whistle)
R:reel
Z:Ed Wosika
K:G
B2 BA Bced|B2BA B~E3|B2 BA Bdef|gefd e2dc:|
BEEF FGGE|D2F/2E/2D BEEF|G3 A B2BA|BEEF BEEF|
FGGE D2F/2E/2D|BEEF FG2A|B2 BA Beed||
